X: 5
T: Sweeney's
R: polka
M: 2/4
L: 1/8
K: Gmaj
|:de/d/ Bd|Gd Bd|e/f/g/e/ dB|AG E2|
de/d/ Bd|Gd Bd|e/f/g/e/ dB|1 AG G2:|2 AG G>A||
|:Bd g>e|dB AG|Bd g>e|dB AG/A/|
Bd g>e|dB AG|de/d/ BA|1 AG G>A:|2 AG G2||

